X:82
%%etbk:tnset id:28,pos:2,rep:3x,ant:
%%etbk:wsite https://thesession.org/tunes/859
%%etbk:video src:ytube,cde:hfIJ54ugWvI,desc:second tune
%%etbk:video src:ytube,cde:SZ6S64ZLl7Y,desc:
%%etbk:pldat 2016-09-16T17:23,2016-09-13T16:50,2016-09-11T16:32,2016-08-03T17:25,2016-03-31T17:19,2016-03-31T17:17,2015-08-10T19:00,2015-06-11T19:18,2015-03-24T17:11,2014-11-22T16:24,2014-09-13T14:02,2014-06-07T14:53,2014-05-06T17:37,2014-05-02T16:39,2014-04-01T17:45,2014-03-22T15:52,2014-02-08T14:10,2013-11-27T18:21,2013-11-23T15:31,2013-11-09T15:03,2013-11-07T15:16
T: Paddy Fahy's
Z: Piano Box Version by Martin Fleischmann
H: Created 2013-02-19 /  Last Modified 2016-08-03
M: 4/4
L: 1/8
R: reel
K: Gmix
|:!3!BBB!5!d !4!c2dc | !3!B!1!G!3!G!2!F !1!DEF!4!G | !1!GAB!5!d !4!c2dc | !3!B!1!G!4!A!2!^F !1!G3A |
!3!B3d c2dc | !3!B!1!G!3!GF !1!DEF!4!G | !1!GABG !3!cedc |1!2!(3Bcd !1!A!2!^F !1!G3A:|2!2!(3Bcd !1!A!2!^F !1!GAB!4!c||
|:!2!d2!4!gg !2!d!4!g!1!B!4!g | !2!d!4!g!5!ag !3!^f!1!d!2!c!1!A | !2!c2!4!ff !2!c!4!f!1!A!4!f | !2!c!4!f!5!a!4!g !3!^f!1!d!2!c!1!A |
!2!d2!4!gg dg!1!B!1!c | !2!d!4!gag !3!^fde!3!^f | !3!gbag !2!^f!1!d !2!(3e^fg |1!3!^f!1!d!2!c!1!A !1!GAB!4!c:|2!3!^f!1!d!2!c!1!A !1!G3A||


